icons/svg/shaders/h_military_transp_night.svg

<?xml version="1.0" encoding="UTF-8" standalone="no"?>
<svg
   xmlns:dc="http://purl.org/dc/elements/1.1/"
   xmlns:cc="http://creativecommons.org/ns#"
   xmlns:rdf="http://www.w3.org/1999/02/22-rdf-syntax-ns#"
   xmlns:svg="http://www.w3.org/2000/svg"
   xmlns="http://www.w3.org/2000/svg"
   xmlns:sodipodi="http://sodipodi.sourceforge.net/DTD/sodipodi-0.dtd"
   xmlns:inkscape="http://www.inkscape.org/namespaces/inkscape"
   width="16"
   height="16"
   id="svg2"
   version="1.1"
   inkscape:version="0.91 r13725"
   sodipodi:docname="h_military_transp_night.svg">
  <metadata
     id="metadata16">
    <rdf:RDF>
      <cc:Work
         rdf:about="">
        <dc:format>image/svg+xml</dc:format>
        <dc:type
           rdf:resource="http://purl.org/dc/dcmitype/StillImage" />
        <dc:title></dc:title>
      </cc:Work>
    </rdf:RDF>
  </metadata>
  <defs
     id="defs14" />
  <sodipodi:namedview
     pagecolor="#ffffff"
     bordercolor="#666666"
     borderopacity="1"
     objecttolerance="10"
     gridtolerance="10"
     guidetolerance="10"
     inkscape:pageopacity="0"
     inkscape:pageshadow="2"
     inkscape:window-width="1920"
     inkscape:window-height="1006"
     id="namedview12"
     showgrid="false"
     inkscape:zoom="15.733333"
     inkscape:cx="-0.51472745"
     inkscape:cy="6.5549496"
     inkscape:window-x="1920"
     inkscape:window-y="0"
     inkscape:window-maximized="1"
     inkscape:current-layer="svg2" />
  <path
     style="fill:#fe9fbf;fill-opacity:0.43000004;stroke:#fe9fbf;stroke-width:0;stroke-opacity:0.43000004"
     inkscape:connector-curvature="0"
     id="svg_2"
     d="m 15.198553,0.00152334 0.799924,0 0,0.79992396 -15.19855571,15.1985557 -0.7999239569202,0 0,-0.799924" />
  <path
     style="fill:#fe9fbf;fill-opacity:0.43000004;stroke:#fe9fbf;stroke-width:0;stroke-opacity:0.43000004"
     inkscape:connector-curvature="0"
     id="svg_3"
     d="M 0.79992129,0.00152334 -2.6669202e-6,0.8014473 l 0,-0.79992396" />
  <path
     style="fill:#fe9fbf;fill-opacity:0.43000004;stroke:#fe9fbf;stroke-width:0;stroke-opacity:0.43000004"
     inkscape:connector-curvature="0"
     id="svg_4"
     d="m 15.198553,16.000003 0.799924,0 0,-0.799924" />
</svg>

<svg width="16" height="16" viewBox="0 0 16 16" fill="none" xmlns="http://www.w3.org/2000/svg">
<g clip-path="url(#clip0)">
<path d="M15.1986 0.00152588H15.9985V0.80145L0.799924 16H0V15.2001" fill="#FE9FBF" fill-opacity="0.43"/>
<path d="M0.799924 0.00152588L0 0.80145V0.00152588" fill="#FE9FBF" fill-opacity="0.43"/>
<path d="M15.1985 16H15.9985V15.2001" fill="#FE9FBF" fill-opacity="0.43"/>
</g>
<defs>
<clipPath id="clip0">
<path d="M0 0H16V16H0V0Z" fill="white"/>
</clipPath>
</defs>
</svg>
